18x18/actions/boundingbox_right.svg

<svg xmlns="http://www.w3.org/2000/svg" width="18" height="18"><defs><style id="current-color-scheme" type="text/css">.ColorScheme-Text{color:#444}</style></defs><path style="opacity:.3;fill:currentColor" class="ColorScheme-Text" d="M18 9a5 5 0 0 1-5 5 5 5 0 0 1-5-5 5 5 0 0 1 5-5 5 5 0 0 1 5 5z"/><path style="opacity:.7;fill:currentColor" class="ColorScheme-Text" d="M13 4a5 5 0 0 0-5 5 5 5 0 0 0 5 5 5 5 0 0 0 5-5 5 5 0 0 0-5-5zm0 1a4 4 0 0 1 4 4 4 4 0 0 1-4 4 4 4 0 0 1-4-4 4 4 0 0 1 4-4z"/><path style="fill:currentColor" class="ColorScheme-Text" d="M12 0h2v18h-2z"/></svg>

<svg xmlns="http://www.w3.org/2000/svg" width="18" height="18" version="1.1">
 <defs>
  <style id="current-color-scheme" type="text/css">
   .ColorScheme-Text { color:#444444; } .ColorScheme-Highlight { color:#4285f4; } .ColorScheme-NeutralText { color:#ff9800; } .ColorScheme-PositiveText { color:#4caf50; } .ColorScheme-NegativeText { color:#f44336; }
  </style>
 </defs>
 <path style="opacity:0.3;fill:currentColor" class="ColorScheme-Text" d="M 18,9 A 5,5 0 0 1 13,14 5,5 0 0 1 8,9 5,5 0 0 1 13,4 5,5 0 0 1 18,9 Z"/>
 <path style="opacity:0.7;fill:currentColor" class="ColorScheme-Text" d="M 13,4 A 5,5 0 0 0 8,9 5,5 0 0 0 13,14 5,5 0 0 0 18,9 5,5 0 0 0 13,4 Z M 13,5 A 4,4 0 0 1 17,9 4,4 0 0 1 13,13 4,4 0 0 1 9,9 4,4 0 0 1 13,5 Z"/>
 <path style="fill:currentColor" class="ColorScheme-Text" d="M 12,0 H 14 V 18 H 12 Z"/>
</svg>
